X:13
T: Abgewiesene Freier ( Drei Gesellen )
N: D0014
O: Europa, Mitteleuropa, Lothringen, Weiler
N: Takt - und Zeilenwiederholung;Inzipit = entfernte Variante zum Lied
R: Ballade, Werbung
M: 2/4
L: 1/8
K: G
D | G2DD | G2BA | G2D
D | G2D2 | G2BA | G2D
B | BBBB | B3B | ABcB | A3
G | FAAA | Addc | BAAA | G3
B | BBBB | B3B | ABcB | A3
G | FAAA | Addc | BAAA | G3

